X: 382
T:Put Me In the Big Chest
R: Reel
N: page 141
N: pentatonic
L:1/8
M:4/4
K:A
| F|"A" EFAB c2 (cf) |"A" ec~BA  "D"F/2F/2F (AF) |"A" EFAB "Bm"cBcf | "A"~ec"E7"Bc "A"A/2A/2A A:|
| c|"A" ef~ec eAAc  |"A" ef~ec "E7" BABc  | "A"ef~ec "D"efaf |"A"~ec"E7"Bc "A"A/2A/2A A :|
| F|"A"EFAB {B}c2 (cB) |"A"{B}c2 (cB) ce "D"f2 |"A" (EF)AB cBcf | "A"~ec"E7"Bc "A"A/2A/2A A :|
| c| "A"ef~ec eAAc  |"A" ef~ec "E7"BABc  |"A" ef~ec "D"efaf |"A"~ec"E7"Bc "A"A/A/A A :|
